src/lib/packages/icons/src/assets/line/phone-incoming.svg

<svg width="24" height="24" viewBox="0 0 24 24" fill="none" xmlns="http://www.w3.org/2000/svg">
<path d="M20.651 15.105L18.0082 13.529C16.7282 12.767 15.0752 13.138 14.2452 14.376L13.483 15.513C11.322 14.457 9.54416 12.674 8.48716 10.504L9.61802 9.75202C10.859 8.92702 11.2362 7.27601 10.4772 5.99301L8.91417 3.353C8.42717 2.532 7.47917 2.10399 6.51817 2.29599C5.07517 2.58499 3.80411 3.46999 3.03111 4.72299C2.26111 5.97099 2.05116 7.431 2.43516 8.832C4.12816 14.993 9.00918 19.871 15.1742 21.563C15.6302 21.688 16.0921 21.75 16.5511 21.75C17.5011 21.75 18.4391 21.485 19.2801 20.966C20.5331 20.193 21.4182 18.922 21.7062 17.479C21.8932 16.548 21.47 15.594 20.651 15.105ZM20.2352 17.186C20.0282 18.222 19.392 19.135 18.492 19.691C17.604 20.239 16.5671 20.391 15.5711 20.118C9.91515 18.565 5.43516 14.089 3.88316 8.43601C3.60916 7.44001 3.76019 6.402 4.30919 5.512C4.86419 4.611 5.77718 3.97602 6.83018 3.76502C6.87918 3.75502 6.92915 3.75 6.97715 3.75C7.23915 3.75 7.48715 3.88699 7.62315 4.11899L9.18614 6.758C9.53914 7.353 9.36419 8.11999 8.78819 8.50299L7.12706 9.608C6.82706 9.807 6.7122 10.19 6.8502 10.521C8.0902 13.495 10.5012 15.911 13.4642 17.15C13.7902 17.287 14.1761 17.174 14.3761 16.876L15.4911 15.211C15.8771 14.636 16.6451 14.463 17.2401 14.817L19.8822 16.393C20.1562 16.556 20.2982 16.875 20.2352 17.186ZM14.3082 9.28699C14.2702 9.19499 14.2501 9.098 14.2501 9V5.66699C14.2501 5.25299 14.5861 4.91699 15.0001 4.91699C15.4141 4.91699 15.7501 5.25299 15.7501 5.66699V7.19L19.4701 3.47C19.7631 3.177 20.2381 3.177 20.5311 3.47C20.8241 3.763 20.8241 4.23801 20.5311 4.53101L16.8111 8.25101H18.3331C18.7471 8.25101 19.0831 8.58701 19.0831 9.00101C19.0831 9.41501 18.7471 9.75101 18.3331 9.75101H15.0001C14.9021 9.75101 14.805 9.731 14.713 9.693C14.53 9.616 14.3842 9.46999 14.3082 9.28699Z" fill="currentColor"/>
</svg>

<svg xmlns="http://www.w3.org/2000/svg" width="24" height="24" fill="none"><path fill="currentColor" d="m20.651 15.105-2.643-1.576a2.803 2.803 0 0 0-3.763.847l-.762 1.137a10.931 10.931 0 0 1-4.996-5.009l1.131-.752a2.8 2.8 0 0 0 .86-3.759l-1.564-2.64a2.254 2.254 0 0 0-2.396-1.057 5.345 5.345 0 0 0-3.487 2.427 5.155 5.155 0 0 0-.596 4.109c1.693 6.161 6.574 11.039 12.74 12.731a5.19 5.19 0 0 0 1.376.187 5.18 5.18 0 0 0 2.73-.784 5.34 5.34 0 0 0 2.425-3.487 2.253 2.253 0 0 0-1.055-2.374Zm-.416 2.081a3.84 3.84 0 0 1-1.743 2.505c-.888.548-1.925.7-2.92.427-5.658-1.553-10.138-6.029-11.69-11.682a3.663 3.663 0 0 1 .426-2.924A3.845 3.845 0 0 1 6.83 3.765a.748.748 0 0 1 .793.354l1.563 2.639a1.3 1.3 0 0 1-.398 1.745l-1.66 1.105a.749.749 0 0 0-.278.913 12.412 12.412 0 0 0 6.614 6.629.752.752 0 0 0 .912-.274l1.115-1.665a1.304 1.304 0 0 1 1.75-.394l2.641 1.576a.751.751 0 0 1 .353.793Zm-5.927-7.899A.75.75 0 0 1 14.25 9V5.667a.75.75 0 0 1 1.5 0V7.19l3.72-3.72a.75.75 0 1 1 1.061 1.061l-3.72 3.72h1.522a.75.75 0 0 1 0 1.5H15a.751.751 0 0 1-.692-.464Z"/></svg>
